packages/foundations/assets/icons/functional/images/file/download_28.svg

<svg width="28" height="28" viewBox="0 0 28 28" fill="none" xmlns="http://www.w3.org/2000/svg">
<g clip-path="url(#clip0_185_917)">
<path fill-rule="evenodd" clip-rule="evenodd" d="M3.5 18.3748C3.5 17.8827 3.8829 17.5 4.37509 17.5C4.86728 17.5 5.25009 17.8827 5.25009 18.3749V23.6249C5.25009 24.1171 5.6329 24.4999 6.12509 24.4999H21.8749C22.3671 24.4999 22.7499 24.1171 22.7499 23.6249L22.7501 18.3748C22.7499 17.8827 23.1327 17.5 23.625 17.4998C24.117 17.5 24.5 17.8827 24.5 18.3748V23.6249C24.5 25.0741 23.3241 26.2498 21.8749 26.2498H6.12509C4.67591 26.2498 3.5 25.0741 3.5 23.6249V18.3748ZM8.12114 13.7266C7.95708 13.5625 7.87509 13.3438 7.87509 13.125C7.87509 12.6875 8.17583 12.25 8.75009 12.25C8.96884 12.25 9.18759 12.3321 9.37895 12.4961L13.125 16.2695V2.62518C13.125 2.133 13.5078 1.75018 14 1.75018C14.4922 1.75018 14.875 2.133 14.875 2.62518V16.2695L18.621 12.4961C18.8124 12.3321 19.0312 12.25 19.2499 12.25C19.7695 12.25 20.1249 12.6328 20.1249 13.125C20.1249 13.3438 20.0428 13.5625 19.8789 13.754L14.6289 19.0039C14.4375 19.1679 14.2188 19.2499 14 19.2499C13.7812 19.2499 13.5625 19.1679 13.3984 19.0039L8.12114 13.7266Z" fill="#1A1C1F"/>
</g>
<defs>
<clipPath id="clip0_185_917">
<rect width="28" height="28" fill="white"/>
</clipPath>
</defs>
</svg>

<svg xmlns="http://www.w3.org/2000/svg" width="28" height="28" fill="none"><g clip-path="url(#a)"><path fill="#1A1C1F" fill-rule="evenodd" d="M3.5 18.375c0-.492.383-.875.875-.875s.875.383.875.875v5.25c0 .492.383.875.875.875h15.75a.864.864 0 0 0 .875-.875v-5.25c0-.492.383-.875.875-.875s.875.383.875.875v5.25a2.626 2.626 0 0 1-2.625 2.625H6.125A2.626 2.626 0 0 1 3.5 23.625zm4.621-4.648a.85.85 0 0 1-.246-.602c0-.437.3-.875.875-.875.219 0 .438.082.629.246l3.746 3.774V2.625c0-.492.383-.875.875-.875s.875.383.875.875V16.27l3.746-3.774a.96.96 0 0 1 .629-.246c.52 0 .875.383.875.875a.96.96 0 0 1-.246.629l-5.25 5.25a.96.96 0 0 1-.629.246.85.85 0 0 1-.602-.246z" clip-rule="evenodd"/></g><defs><clipPath id="a"><path fill="#fff" d="M0 0h28v28H0z"/></clipPath></defs></svg>
